X:1
T:Title
%%score ( 1 2 ) { 3 | 4 }
L:1/8
Q:1/4=110
M:4/4
K:A
V:1 treble nm="Grand Piano, Soprano"
V:2 treble 
V:3 bass nm="Choir Pad, San Francisco, 76.76 D"
V:4 bass 
V:1
 [EA]2 [DG]>[DG] [EA]2 (3[F-B][F-c][Fd] | [Ec]4 [EB]2 [Ee]>d | [Ec]2 BA [EA]2 [DG]2 | [CA]6 [Ec]2 | %4
w: By~John~Harrison~Tenney,~1890 * * * * * *||||
 [DB]2 [CA]2 [Ed]2 [Ec]2 | [Ec]4 [EB]2 [Ee]2 | [Ec]2 [EB][FA] [EG]2 [^DF]2 | E6 E2 | %8
w: ||||
 [Ed]3 [Ec] [Ed]2 [EB]2 | c3 d [Ee]2 [Ec]2 | [Ed]2 [Ed]2 [Ed]2 [Ed]2 | [Ec]6 E2 | %12
w: ||||
 [EA]2 [EB]2 [Ec]2 [Fd]2 | [=Ge]4 edAB | [Ec]3 [Ed] [Ec]2 [DB]2 | [CA]8 |] %16
w: ||||
V:2
 x8 | x8 | z2 F2 z4 | x8 | x8 | x8 | x8 | x8 | x8 | E4 z4 | x8 | x8 | x8 | z4 F2 F2 | x8 | x8 |] %16
V:3
 C2 B,>B, A,2 A,2 | A,4 G,2 B,2 | A,2 D2 C2 B,2 | A,6 A,2 | G,2 A,2 B,2 A,2 | A,4 G,2 B,2 | %6
 A,2 B,C B,2 A,2 | G,6 E,2 | B,3 ^A, B,2 G,2 | A,3 B, C2 A,2 | G,2 A,2 B,2 G,2 | A,2 E,2 A,,2 E,2 | %12
 A,2 G,2 A,2 A,2 | A,4 A,2 A,2 | A,3 B, A,2 G,2 | A,8 |] %16
V:4
 A,,2 B,,>B,, C,2 D,2 | E,4 E,2 G,2 | z2 D,2 E,2 E,2 | A,,6 A,,2 | E,2 F,2 G,2 z2 | E,4 E,2 G,2 | %6
 z2 G,A, z2 B,,2 | E,6 z2 | E,3 E, E,2 E,2 | z4 A,2 A,,2 | E,2 F,2 G,2 E,2 | z8 | C,2 E,2 z2 F,2 | %13
 C,4 D,2 D,2 | E,3 E, E,2 E,2 | A,,8 |] %16

